CKC/img/icons/phone-icon.svg

<svg width="16" height="16" viewBox="0 0 16 16" fill="none" xmlns="http://www.w3.org/2000/svg">
<path d="M6.12086 14.2803C5.45803 14.7079 4.66817 14.8943 3.8841 14.808C3.10004 14.7218 2.36957 14.3682 1.81554 13.8067L1.33119 13.3331C1.11885 13.1159 0.999957 12.8243 0.999957 12.5205C0.999957 12.2168 1.11885 11.9251 1.33119 11.7079L3.38698 9.67361C3.60236 9.46195 3.89225 9.34334 4.19423 9.34334C4.4962 9.34334 4.7861 9.46195 5.00148 9.67361V9.67361C5.21867 9.88596 5.51036 10.0049 5.8141 10.0049C6.11785 10.0049 6.40954 9.88596 6.62673 9.67361L9.85572 6.44463C9.96344 6.33847 10.049 6.21197 10.1074 6.07246C10.1657 5.93295 10.1958 5.78323 10.1958 5.632C10.1958 5.48077 10.1657 5.33104 10.1074 5.19154C10.049 5.05203 9.96344 4.92552 9.85572 4.81937V4.81937C9.64406 4.60399 9.52545 4.3141 9.52545 4.01212C9.52545 3.71015 9.64406 3.42025 9.85572 3.20488L11.9007 1.15985C12.1179 0.947507 12.4096 0.828613 12.7134 0.828613C13.0171 0.828613 13.3088 0.947507 13.526 1.15985L13.9996 1.6442C14.5611 2.19823 14.9146 2.92869 15.0009 3.71276C15.0871 4.49683 14.9008 5.28668 14.4732 5.94952C12.2451 9.23311 9.41019 12.0607 6.12086 14.2803V14.2803Z" stroke="#F9600A" stroke-width="1.5" stroke-linecap="round" stroke-linejoin="round"/>
</svg>

<svg width="16" height="16" fill="none" xmlns="http://www.w3.org/2000/svg"><path d="M6.12 14.28a3.433 3.433 0 01-4.304-.473l-.485-.474a1.162 1.162 0 010-1.625l2.056-2.034a1.152 1.152 0 011.614 0v0a1.162 1.162 0 001.626 0l3.229-3.23a1.141 1.141 0 000-1.625v0a1.152 1.152 0 010-1.614L11.9 1.16a1.163 1.163 0 011.625 0l.474.484a3.434 3.434 0 01.473 4.306 31.15 31.15 0 01-8.352 8.33v0z" stroke="#F9600A" stroke-width="1.5" stroke-linecap="round" stroke-linejoin="round"/></svg>
